X:1
T:Title
%%score ( 1 2 ) { 3 | 4 }
L:1/8
Q:1/4=100
M:4/4
K:Ab
V:1 treble nm="Grand Piano, Soprano"
V:2 treble 
V:3 bass nm="Choir Pad, Aksim, William Golden, 1906"
V:4 bass 
V:1
 z2 c6 | [GB][Gc][EB][EA]- [EA]3- [EA]/ z/ | z2 F6 | [EA][EB] c2- [Ec-][Ec-] [Ec]2 | %4
 Ac e2- [Ae-]2 [Ae][Af] | z4 A4 | z2 A6 | z2 A6 | z2 d6 | z2 z e- e3- e/ z/ | z2 A6 | z2 B6 | %12
 Ac e2- [Ae-]2 [Ae][Af] | z4 A4 | z2 A6 | z2 A6- | A4 z4 |] %17
V:2
 ce E2 E2 EA | x8 | AA D2 D2 D[CE] | z2 E2 z4 | z2 A2 z4 | [Ae][Ec][FB][FA] FFFF | EE E2 F2 E[EB] | %7
 [Dc][DB]CE FF E2 | AA F2 F2 F[Fd] | [Af][Af][Ec]A AAAA | cB F2 F2 F[FA] | [Fc][FA] G2 FA G2 | %12
 z2 A2 z4 | [Ae][Ec][FB][FA] FFFF | EE E2 F2 E[EB] | [Dc][DB]CE FF E2- | E4 z4 |] %17
V:3
 z2 A,2 A,2 A,C | D[K:treble]EDC CCCC | z2[K:bass] A,2 A,2 A,A, | A,G, A,2 A,A, A,2 | %4
 z2[K:treble] C2 C2 CD | CEDD DDDD | z2[K:bass] C2 C2 A,A, | A,G,[K:treble]A,C DD C2 | %8
 z2[K:bass] A,2 A,2 A,A, | A,A,A,[K:treble]C CA,CC | z2 C2 C2 CC | =DD E2 DF E2 | z2 C2 C2 CD | %13
 CEDD DDDD | z2[K:bass] C2 C2 A,A, | A,G,A,[K:treble]C DD C2- | C4 z4 |] %17
V:4
 z4 z2 z A, | E,E,A,A, A,[G,A,]A,A, | z2 D,2 D,2 A,,A,, | C,E, z2 E,C, A,,2 | z2 A,2 A,2 A,A, | %5
 A,A,D,D, D,D,D,D, | z2 A,,2 F,2 C,D, | E,E, A,,6 | z2 D,2 D,2 D,D, | D,D, z A, E,C,C,C, | %10
 z2 F,2 F,2 F,F, | F,F, E,2 B,,B,, E,2 | z2 A,2 A,2 A,A, | A,A,D,D, D,D,D,D, | z2 A,,2 F,2 C,D, | %15
 E,E, A,,6- | A,,4 z4 |] %17

